X: 2301
T: Bacon And Potatoes
R: jig
M: 6/8
K: Aminor
|:aaa age|ggg ged|eee edc|Acd edc|
aaa age|ggg ged|eee edc|1 edc A3:|2 edc A2D||
|:EAA Ace|dgg ged|eaa age|ged edc|
EAA Ace|dgg ged|eaa age|1 dcA A2D:|2 dcA A3||

